svgs/carrier_vanity_name.svg

<svg width="192" height="192" viewBox="0 0 192 192" fill="none" xmlns="http://www.w3.org/2000/svg">
<path d="M97.8885 158.878L118.226 133.802C118.726 133.112 119.37 132.538 120.113 132.118C120.856 131.699 121.682 131.443 122.533 131.37L154.584 128.591C157.853 128.308 160.734 130.705 161.02 133.945L163.886 163.446C164.173 166.686 161.706 169.558 158.431 169.737C64.2829 174.887 29.1757 103.533 22.0381 41.7284C21.6641 38.4966 24.09 35.6402 27.3597 35.3566L56.2794 32.5011C59.5481 32.2174 62.4294 34.6145 62.7152 37.8549L66.5048 69.4878C66.5795 70.3365 66.4679 71.1912 66.1779 71.9927C65.8878 72.7942 65.4261 73.5232 64.8249 74.1292L43.3916 98.7848M154.425 53.7383L168.244 39.9584C170.585 37.6233 170.585 33.8375 168.244 31.5025L160.471 23.7513C158.129 21.4162 154.332 21.4162 151.991 23.7513L138.172 37.5312M154.425 53.7383L104.165 103.857C103.295 104.724 102.178 105.304 100.967 105.517L91.5279 107.178C87.4287 107.899 83.8576 104.338 84.5809 100.251L86.2466 90.8384C86.4604 89.6303 87.0417 88.517 87.9116 87.6496L138.172 37.5312M154.425 53.7383L138.172 37.5312" stroke="black" stroke-width="12" stroke-linecap="round" stroke-linejoin="round"/>
</svg>

<svg xmlns="http://www.w3.org/2000/svg" width="192" height="192" fill="none" viewBox="0 0 192 192"><path stroke="#000" stroke-linecap="round" stroke-linejoin="round" stroke-width="12" d="m97.889 158.878 20.337-25.076a5.94 5.94 0 0 1 4.307-2.432l32.051-2.779c3.269-.283 6.15 2.114 6.436 5.354l2.866 29.501c.287 3.24-2.18 6.112-5.455 6.291-94.148 5.15-129.255-66.204-136.393-128.009-.374-3.231 2.052-6.088 5.322-6.371L56.28 32.5c3.268-.284 6.15 2.114 6.435 5.354l3.79 31.633a5.85 5.85 0 0 1-1.68 4.641L43.392 98.785m111.033-45.047 13.819-13.78a5.97 5.97 0 0 0 0-8.455l-7.773-7.752a6.01 6.01 0 0 0-8.48 0l-13.819 13.78m16.253 16.207-50.26 50.119a6 6 0 0 1-3.198 1.66l-9.44 1.661c-4.098.721-7.67-2.84-6.946-6.927l1.666-9.413a5.97 5.97 0 0 1 1.665-3.188l50.26-50.119m16.253 16.207-16.253-16.207"/></svg>
